X:6937
T:The Humours of Whiskey no.2
O:england
R:Slip Jig
M:9/8
K:EDor
|: BEE BEF G2A | BEE BAG FGA | BEE BEF G2 A | Bcd A2G FED :|
|: ded =cAF G3 | Add def gfe |1 ded =cAF G2A | Bcd A2G FED :|
|2 afd gec d2A | Bcd ABG FED ||


